svg/weather/partly_cloud_daytime_fill.svg

<?xml version="1.0" encoding="UTF-8"?>
<svg width="24px" height="24px" viewBox="0 0 24 24" version="1.1" xmlns="http://www.w3.org/2000/svg" xmlns:xlink="http://www.w3.org/1999/xlink">
    <title>partly_cloud_daytime_fill</title>
    <g id="Icon" stroke="none" stroke-width="1" fill="none" fill-rule="evenodd">
        <g id="Weather" transform="translate(-817.000000, -240.000000)">
            <g id="partly_cloud_daytime_fill" transform="translate(817.000000, 240.000000)">
                <path d="M24,0 L24,24 L0,24 L0,0 L24,0 Z M12.5935,23.2578 L12.5819,23.2595 L12.5109,23.295 L12.4919,23.2987 L12.4767,23.295 L12.4057,23.2595 C12.3958,23.2564 12.387,23.259 12.3821,23.2649 L12.378,23.2758 L12.3609,23.7031 L12.3659,23.7235 L12.3769,23.7357 L12.4805,23.8097 L12.4953,23.8136 L12.5071,23.8097 L12.6107,23.7357 L12.6233,23.7197 L12.6267,23.7031 L12.6096,23.2758 C12.6076,23.2657 12.601,23.2593 12.5935,23.2578 Z M12.8584,23.1453 L12.8445,23.1473 L12.6598,23.2397 L12.6499,23.2499 L12.6472,23.2611 L12.6651,23.6906 L12.6699,23.7034 L12.6784,23.7105 L12.8793,23.8032 C12.8914,23.8069 12.9022,23.803 12.9078,23.7952 L12.9118,23.7812 L12.8777,23.1665 C12.8753,23.1546 12.8674,23.147 12.8584,23.1453 Z M12.143,23.1473 C12.1332,23.1424 12.1222,23.1453 12.1156,23.1526 L12.1099,23.1665 L12.0758,23.7812 C12.0751,23.7927 12.0828,23.8019 12.0926,23.8046 L12.1083,23.8032 L12.3092,23.7105 L12.3186,23.7024 L12.3225,23.6906 L12.3404,23.2611 L12.3372,23.2485 L12.3278,23.2397 L12.143,23.1473 Z" id="MingCute" fill-rule="nonzero"></path>
                <path d="M7.25,13 C8.52064,13 9.59001,13.8618 9.90552,15.0327 C11.0934,15.2265 12,16.2574 12,17.5 C12,18.825472 10.9684531,19.9100378 9.66437437,19.9946823 L9.5,20 L5,20 C3.89543,20 3,19.1046 3,18 C3,17.0619 3.64584,16.2747 4.51713,16.0587 C4.50581,15.9573 4.5,15.8544 4.5,15.75 C4.5,14.2312 5.73122,13 7.25,13 Z M12,4 C13.5687,4 15.032,4.45152 16.2669,5.23169 C16.7214,4.56086 17.4898,4.12 18.3611,4.12 C19.3189,4.12 20.1507,4.6521 20.5797,5.4359 C21.4165,5.80749 22,6.64494 22,7.61997 C22,8.89296 21.0043,9.93338 19.7492,10.0049 C19.9129,10.6427 20,11.3112 20,12 C20,15.9716 17.1059,19.2672 13.3117,19.893 C13.7478,19.1998 14,18.3794 14,17.5 C14,15.6873 12.9294,14.1271 11.386,13.4137 C10.5709,11.9733 9.02577,11 7.25,11 C5.99518,11 4.85401,11.4866 4.00485,12.2813 L4,12 L4,12 C4,7.58172 7.58172,4 12,4 Z M18.3611,6.12 C18.1074,6.12 17.8955,6.29899 17.8449,6.53757 C18.17826,6.894162 18.479428,7.2812948 18.7436936,7.6943092 L18.9349,8.00885 L19.6111,8.00885 C19.8259,8.00885 20,7.83474 20,7.61997 C20,7.42766 19.8594,7.26624 19.6754,7.23623 C19.3308667,7.18002556 19.0438543,6.94914062 18.912549,6.63217436 L18.8708,6.50945 C18.8102,6.28436 18.6036,6.12 18.3611,6.12 Z" id="形状" fill="#09244B"></path>
            </g>
        </g>
    </g>
</svg>

<svg xmlns="http://www.w3.org/2000/svg" width="24" height="24"><g fill="none" fill-rule="evenodd"><path d="M24 0v24H0V0h24ZM12.594 23.258l-.012.002-.071.035-.02.004-.014-.004-.071-.036c-.01-.003-.019 0-.024.006l-.004.01-.017.428.005.02.01.013.104.074.015.004.012-.004.104-.074.012-.016.004-.017-.017-.427c-.002-.01-.009-.017-.016-.018Zm.264-.113-.014.002-.184.093-.01.01-.003.011.018.43.005.012.008.008.201.092c.012.004.023 0 .029-.008l.004-.014-.034-.614c-.003-.012-.01-.02-.02-.022Zm-.715.002a.023.023 0 0 0-.027.006l-.006.014-.034.614c0 .012.007.02.017.024l.015-.002.201-.093.01-.008.003-.011.018-.43-.003-.012-.01-.01-.184-.092Z"/><path fill="#09244B" d="M7.25 13c1.27 0 2.34.862 2.656 2.033a2.5 2.5 0 0 1-.242 4.962L9.5 20H5a2 2 0 0 1-.483-3.941A2.75 2.75 0 0 1 7.25 13ZM12 4c1.569 0 3.032.452 4.267 1.232a2.526 2.526 0 0 1 4.313.204 2.388 2.388 0 0 1-.83 4.569 8.002 8.002 0 0 1-6.437 9.888 4.499 4.499 0 0 0-1.926-6.48A4.746 4.746 0 0 0 7.249 11a4.734 4.734 0 0 0-3.245 1.281L4 12a8 8 0 0 1 8-8Zm6.361 2.12a.528.528 0 0 0-.516.418c.333.356.634.743.899 1.156l.19.315h.677a.389.389 0 0 0 .064-.773 1 1 0 0 1-.762-.604l-.042-.123a.528.528 0 0 0-.51-.389Z"/></g></svg>
